X: 1
T: La Zone de Venus   [G]
O: c.1755
R: jig
Z: 2014 John Chambers <jc:trillian.mit.edu>
B: Giovanni Andrea Gallini  "A New Collection of Forty-Four Cotillions" #7
F: http://books.google.com/books?id=ipV0y26Vq8EC
M: 6/8
L: 1/8
P: Rondeau
K: G
% - - - - -
"A"|:\
"G"B3 "D"AGA | "G"D2E D2G | "G"D2G "A7"F2G | "D"A3 AGA |\
"G"B3 AGA | "G"D2E D2G | "C"EcB "D7"A2G | "G"HG6 :|
"B"[|\
"G"d2g d2g | "G"Bcd "C"e3 | "Am"ce2 "(D7)"ce2 | "D7"ABc "(G)"d3 |\
"G"GAG GAG | "G"GAG "D"FED | "G"GAG "D"A2d | "G"B3 "D7"A3 "d.C."y|]
"C"[|\
"G"B2B BAG | "D"d2d d3 | "Em"G2G "A7"GFE | "D"F2E D2A |\
"G"B^cd efg | "A7"^cBA G3 | "D"FED "A7"TE3 | "D"D6 "d.C."y|]
% - - - - -
